packages/components/icon/src/assets/icons/edit.svg

<svg width="24" height="24" viewBox="0 0 24 24" fill="none" xmlns="http://www.w3.org/2000/svg">
<path fill-rule="evenodd" clip-rule="evenodd" d="M14.9458 3C15.3363 3 15.8208 3.16632 16.3993 3.49897C16.9778 3.83161 17.5563 4.28719 18.1348 4.8657C18.7133 5.44422 19.1725 6.02272 19.5124 6.60124C19.8523 7.17976 20.0222 7.66425 20.0222 8.05475C20.0222 8.2717 19.9571 8.44525 19.827 8.57541L9.60899 18.7934C9.52221 18.8802 9.39928 18.9669 9.24019 19.0537C9.08109 19.1405 8.93647 19.1911 8.8063 19.2056L3.81663 19.9866C3.5563 20.03 3.34659 19.9757 3.1875 19.8239C3.02841 19.672 2.97056 19.4659 3.01395 19.2056L3.79494 14.1942C3.8094 14.064 3.86002 13.923 3.9468 13.7712C4.03357 13.6193 4.12035 13.4928 4.20713 13.3915L14.4251 3.17355C14.5408 3.05785 14.7144 3 14.9458 3ZM4.72779 14.4112L4.44576 16.3202L6.70196 18.5764L8.58936 18.2727C8.74845 18.2438 8.88585 18.1715 9.00155 18.0558L17.8094 9.24793L13.7526 5.21281L4.94473 14.0207C4.82903 14.1364 4.75672 14.2665 4.72779 14.4112Z" fill="currentColor"/>
</svg>

<svg viewBox="0 0 24 24" fill="none" xmlns="http://www.w3.org/2000/svg"><path fill-rule="evenodd" clip-rule="evenodd" d="M14.946 3c.39 0 .875.166 1.453.499.579.333 1.157.788 1.736 1.367.578.578 1.037 1.157 1.377 1.735.34.579.51 1.063.51 1.454 0 .217-.065.39-.195.52L9.609 18.793a1.6 1.6 0 0 1-.369.26 1.214 1.214 0 0 1-.434.153l-4.99.78c-.26.044-.47-.01-.628-.162-.16-.152-.217-.358-.174-.618l.78-5.012c.015-.13.066-.271.153-.423.087-.152.173-.278.26-.38L14.425 3.175c.116-.116.29-.174.52-.174ZM4.728 14.411l-.282 1.91 2.256 2.255 1.887-.303a.764.764 0 0 0 .413-.217l8.807-8.808-4.056-4.035-8.808 8.808a.756.756 0 0 0-.217.39Z" fill="currentColor"/></svg>
